X: 18542
T: I Have It Somewhere
R: jig
M: 6/8
K: Amajor
c2 B AAA|Bce f2 e|efa f2 e|efa efa|
c2 B AAA|Bce f2 e|efa f2 e|cAA A3:|
fAA eAA|c2 B cee|fAA eAA|faf ece|
fAA eAA|c2 B cee|faf eaf|eaf ece:|

